X:1
T:Edgbaston, 11.11.11.11
T:Edgbaston, 11.11.11.11
T:Timothy Richard Matthews, 1871
T:Public Domain Courtesy of the Cyber Hymnal™
C:Timothy Richard Matthews, 1871
Z:Public Domain
Z:Courtesy of the Cyber Hymnal™
%%score ( 1 2 ) ( 3 4 )
L:1/8
Q:1/4=110
M:2/2
K:C
V:1 treble 
V:2 treble 
V:3 bass 
V:4 bass 
V:1
 C2 [CE]2 [DG]2 [EG]2 | A4 [EG]4 | [G_B]2 [FA]2 [FG]2 [EG]2 | F8 | [CE]2 [DG]2 [Ec]2 [Ec]2 | %5
 [Gd]4 [Ec]4 | [Gc]2 [GB]2 [GA]2 [^FA]2 | G8 | [EG]2 [EG]2 [EA]2 [EA]2 | F4 [B,E]4 | %10
 [CE]2 [CA]2 [CA]2 [Fd]2 | [EB]8 | [EB]2 [EB]2 [Gd]2 [Gd]2 | [Ge]4 [Gc]4 | %14
 [FA]2 [Gc]2 [Dd]2 [Fd]2 | [Ec]8 |] %16
V:2
 C2 x6 | (C2 D2) x4 | x8 | F8 | x8 | x8 | x8 | G8 | x8 | (D2 C2) x4 | x8 | x8 | x8 | x8 | x8 | %15
 x8 |] %16
V:3
 [C,E,]2 [C,G,]2 [B,,D]2 [C,C]2 | (A,2 B,2) [E,C]4 | [F,C]2 [F,C]2 [C,C]2 [C,_B,]2 | [F,A,]8 | %4
 [C,G,]2 [B,,D]2 [A,,C]2 [A,C]2 | (C2 B,2) [C,C]4 | [D,C]2 [G,D]2 [D,D]2 [D,C]2 | [G,,B,]8 | %8
 [C,G,]2 [C,G,]2 [A,,C]2 [A,,C]2 | [D,A,]4 [E,^G,]4 | A,2 A,2 [F,A,]2 [D,A,]2 | [E,^G,]8 | %12
 A,2 [A,C]2 [G,B,]2 [G,B,]2 | [C,C]4 [E,C]4 | [F,C]2 [E,C]2 [G,C]2 [G,B,]2 | [C,C]8 |] %16
V:4
 x8 | F,4 x4 | x8 | x8 | x8 | G,4 x4 | x8 | x8 | x8 | x8 | A,2 A,2 x4 | x8 | A,2 x6 | x8 | x8 | %15
 x8 |] %16

